Sources/FrostedUI/Resources/Icons.xcassets/closedCaptions12.imageset/closed-captions-12.svg

<svg width="12" height="12" viewBox="0 0 12 12" fill="none" xmlns="http://www.w3.org/2000/svg" data-fui-icon="true">
  <path
    d="M10.6667 2.34C10.85 2.34 11 2.49 11 2.67333V9.34C11 9.52333 10.85 9.67333 10.6667 9.67333H1.33333C1.15 9.67333 1 9.52333 1 9.34V2.67333C1 2.49 1.15 2.34 1.33333 2.34H10.6667ZM1.33333 1.34C0.597917 1.34 0 1.93792 0 2.67333V9.34C0 10.0754 0.597917 10.6733 1.33333 10.6733H10.6667C11.4021 10.6733 12 10.0754 12 9.34V2.67333C12 1.93792 11.4021 1.34 10.6667 1.34H1.33333ZM4.16667 5.00667C4.4625 5.00667 4.72917 5.13375 4.9125 5.34C5.09583 5.54625 5.4125 5.56292 5.61875 5.37958C5.825 5.19625 5.84167 4.87958 5.65833 4.67333C5.29375 4.265 4.76042 4.00667 4.16875 4.00667C3.06458 4.00667 2.16875 4.9025 2.16875 6.00667C2.16875 7.11083 3.06458 8.00667 4.16875 8.00667C4.76042 8.00667 5.29375 7.74833 5.65833 7.34C5.84167 7.13375 5.825 6.81917 5.61875 6.63375C5.4125 6.44833 5.09792 6.46708 4.9125 6.67333C4.72917 6.87958 4.4625 7.00667 4.16667 7.00667C3.61458 7.00667 3.16667 6.55875 3.16667 6.00667C3.16667 5.45458 3.61458 5.00667 4.16667 5.00667ZM7.16667 6.00667C7.16667 5.45458 7.61458 5.00667 8.16667 5.00667C8.4625 5.00667 8.72917 5.13375 8.9125 5.34C9.09583 5.54625 9.4125 5.56292 9.61875 5.37958C9.825 5.19625 9.84167 4.87958 9.65833 4.67333C9.29375 4.265 8.76042 4.00667 8.16875 4.00667C7.06458 4.00667 6.16875 4.9025 6.16875 6.00667C6.16875 7.11083 7.06458 8.00667 8.16875 8.00667C8.76042 8.00667 9.29375 7.74833 9.65833 7.34C9.84167 7.13375 9.825 6.81917 9.61875 6.63375C9.4125 6.44833 9.09792 6.46708 8.9125 6.67333C8.72917 6.87958 8.4625 7.00667 8.16667 7.00667C7.61458 7.00667 7.16667 6.55875 7.16667 6.00667Z"
    fill="currentColor"
  />
</svg>

<svg xmlns="http://www.w3.org/2000/svg" width="12" height="12" fill="none" data-fui-icon="true" viewBox="0 0 12 12"><path fill="currentColor" d="M10.667 2.34c.183 0 .333.15.333.333V9.34c0 .183-.15.333-.333.333H1.333A.334.334 0 0 1 1 9.34V2.673c0-.183.15-.333.333-.333zm-9.334-1C.598 1.34 0 1.938 0 2.673V9.34c0 .735.598 1.333 1.333 1.333h9.334c.735 0 1.333-.598 1.333-1.333V2.673c0-.735-.598-1.333-1.333-1.333zm2.834 3.667c.296 0 .562.127.745.333a.5.5 0 0 0 .746-.667 2 2 0 1 0 0 2.667.5.5 0 0 0-.746-.667 1 1 0 1 1-.746-1.667m3 1a1 1 0 0 1 1.745-.667.5.5 0 0 0 .746-.667 2 2 0 1 0 0 2.667.5.5 0 0 0-.745-.667 1 1 0 0 1-1.746-.667"/></svg>
